X:1
T:[ID 3-25]
T:[ID 3-25]
T:Bezeichnung standardisiert: Polonaise Polonoise 17.
T:Urheber unbekannt Datum in der hier transkribierten schriftlichen Quelle: 1767
C:Urheber unbekannt
C:Datum in der hier transkribierten schriftlichen Quelle: 1767
%%score 1 2
L:1/8
M:3/4
K:D
V:1 treble nm="Primo"
V:2 treble nm="Secondo"
V:1
 d/c/d/e/ dAFD | d/c/d/e/ dAFD | f a2 g/f/ g2 | e g2 f/e/ f2 | f a2 g/f/ g2 | e g2 f/e/ f2 | %6
 d/e/d/c/ Bc d/e/f/d/ |{d} cB/A/ d2 D2 :: A/B/A/^G/ A/B/c/d/ eE | A/B/A/^G/ A/B/c/d/ eE | %10
 ff/e/ dc d/c/B/A/ | ^G/A/B/G/ A2 A2 | aa/f/ aa/f/ aa/f/ | b2 a2 g2 | gg/e/ gg/e/ gg/e/ | %15
 a2 g2 f2 | A/B/c/d/ e2 g/f/e/d/ | c/d/e/c/ d2 D2 :| %18
V:2
 !fermata!f/e/f/g/ f2 z2 | f/e/f/g/ f2 z2 | d f2 e/d/ e2 | c e2 d/c/ d2 | d f2 e/d/ e2 | %5
 c e2 d/c/ d2 | F/A/G/F/ GA F/G/A/F/ | EG/E/ F2 F2 :: cd/B/ cd/B/ eE | cd/B/ cd/B/ eE | %10
 dd/c/ BA B/c/d/c/ | B/c/d/B/ c2 c2 | ff/d/ ff/d/ fd | g/e/e/g/ f/d/d/f/ ef | ee/c/ ee/c/ ee/c/ | %15
 f/d/d/f/ e/c/c/e/ d2 | F/G/A/B/ cedc/B/ | A/B/c/A/ d2 D2 :| %18

